src/images/logout-black.svg

<svg width="24" height="24" viewBox="0 0 24 24" fill="none" xmlns="http://www.w3.org/2000/svg">
<path fill-rule="evenodd" clip-rule="evenodd" d="M10 6L6 6L6 18H10V20H6C4.89543 20 4 19.1046 4 18V6C4 4.89543 4.89543 4 6 4H10V6ZM17.5856 13L13.2927 17.1339L14.707 18.4958L21.4141 12.0371L14.707 5.57837L13.2927 6.9402L17.5856 11.0741H8V13H17.5856Z" fill="#FFFFFF"/>
</svg>

<svg width="24" height="24" fill="none" xmlns="http://www.w3.org/2000/svg"><path fill-rule="evenodd" clip-rule="evenodd" d="M10 6H6v12h4v2H6a2 2 0 0 1-2-2V6a2 2 0 0 1 2-2h4v2zm7.586 7-4.293 4.134 1.414 1.362 6.707-6.459-6.707-6.459-1.414 1.362 4.293 4.134H8V13h9.586z" fill="#FFF"/></svg>
